images/prologue/png/second_step.svg

<svg width="83" height="55" viewBox="0 0 83 55" fill="none" xmlns="http://www.w3.org/2000/svg">
<g clip-path="url(#clip0_3813_1570)">
<path d="M7.06489 2.33003V1.16003H0.963867V2.33003H3.42548V10H4.60328V2.33003H7.06489ZM10.4737 0.900024V10H11.6515V4.67003H14.2427V10H15.4205V3.50003H11.6515V0.900024H10.4737ZM21.8282 10.13C22.2758 10.13 22.6055 10.13 23.5242 9.87003V8.72603C22.7587 8.96003 22.2993 8.96004 21.8282 8.96004C20.4502 8.96004 20.1204 8.24504 20.0379 7.33504H23.9247V6.62003C23.9247 4.57903 23.1944 3.37003 21.3806 3.37003C19.5668 3.37003 18.8366 4.70903 18.8366 6.75003C18.8366 8.03703 19.1664 10.13 21.8282 10.13ZM20.0144 6.16502C20.0733 5.11202 20.4737 4.54002 21.3806 4.54002C22.3346 4.54002 22.7233 5.03402 22.7469 6.16502H20.0144ZM37.2084 10.13C39.0811 10.13 40.2236 9.42803 40.2236 7.62103C40.2236 5.91803 39.3638 5.43704 37.1024 4.86504C35.7244 4.51404 35.1119 4.22803 35.1119 3.43503C35.1119 2.51203 35.689 2.20003 36.6313 2.20003C37.3851 2.20003 38.4097 2.48602 39.5876 2.94102V1.77103C38.7984 1.34203 37.7384 1.03003 36.7844 1.03003C35.0766 1.03003 33.9341 1.70603 33.9341 3.39603C33.9341 4.77403 34.5583 5.45003 36.855 6.03503C38.2095 6.37303 39.0458 6.63303 39.0458 7.59503C39.0458 8.71303 38.2566 8.96004 37.2084 8.96004C36.1484 8.96004 34.9235 8.51804 33.8163 7.68604V8.97304C34.629 9.66204 36.0777 10.13 37.2084 10.13ZM46.5193 10.13C46.9668 10.13 47.2966 10.13 48.2153 9.87003V8.72603C47.4497 8.96003 46.9904 8.96004 46.5193 8.96004C45.1413 8.96004 44.8115 8.24504 44.729 7.33504H48.6158V6.62003C48.6158 4.57903 47.8855 3.37003 46.0717 3.37003C44.2579 3.37003 43.5277 4.70903 43.5277 6.75003C43.5277 8.03703 43.8574 10.13 46.5193 10.13ZM44.7055 6.16502C44.7644 5.11202 45.1648 4.54002 46.0717 4.54002C47.0257 4.54002 47.4144 5.03402 47.438 6.16502H44.7055ZM54.4072 10.13C55.7852 10.13 56.6215 9.28502 56.6215 8.18002C56.6215 6.98402 55.9855 6.58104 54.2423 6.06104C53.2412 5.76204 53.0881 5.51503 53.0881 5.15103C53.0881 4.82603 53.2883 4.54002 53.889 4.54002C54.5368 4.54002 55.2906 4.74803 56.1504 5.21603V4.04604C55.5732 3.60404 54.7959 3.37003 54.0068 3.37003C52.7465 3.37003 51.9103 4.11103 51.9103 5.19003C51.9103 6.21703 52.3696 6.82803 54.0539 7.23103C55.1374 7.49103 55.4437 7.73802 55.4437 8.19302C55.4437 8.59602 55.1728 8.96004 54.4072 8.96004C53.5356 8.96004 52.9821 8.72603 51.9103 7.98503V9.29803C52.7701 9.93503 53.4885 10.13 54.4072 10.13ZM62.6073 10.13C64.3976 10.13 65.4223 8.79103 65.4223 6.75003C65.4223 4.70903 64.3976 3.37003 62.6073 3.37003C60.8171 3.37003 59.7924 4.70903 59.7924 6.75003C59.7924 8.79103 60.8171 10.13 62.6073 10.13ZM62.6073 8.96004C61.3942 8.96004 60.9702 8.44003 60.9702 6.75003C60.9702 5.06003 61.3942 4.54002 62.6073 4.54002C63.8205 4.54002 64.2445 5.06003 64.2445 6.75003C64.2445 8.44003 63.8205 8.96004 62.6073 8.96004ZM72.4964 4.67003V10H73.6742V3.50003H68.7274V10H69.9052V4.67003H72.4964ZM81.4277 4.28003C81.0744 3.72103 80.4973 3.37003 79.6728 3.37003C77.7648 3.37003 77.0934 4.83903 77.0934 6.75003C77.0934 8.66103 77.7648 10.13 79.6728 10.13C80.4973 10.13 81.0744 9.77903 81.4277 9.22003V10H82.6055V0.900024H81.4277V4.28003ZM79.8495 8.96004C78.6952 8.96004 78.2712 8.31003 78.2712 6.75003C78.2712 5.19003 78.6952 4.54002 79.8495 4.54002C81.0037 4.54002 81.4277 5.19003 81.4277 6.75003C81.4277 8.31003 81.0037 8.96004 79.8495 8.96004ZM2.25945 28.83V21.16H1.08165V30H5.53374V28.83H2.25945ZM11.7 30.13C12.1476 30.13 12.4773 30.13 13.396 29.87V28.726C12.6305 28.96 12.1711 28.96 11.7 28.96C10.322 28.96 9.99218 28.245 9.90973 27.335H13.7965V26.62C13.7965 24.579 13.0662 23.37 11.2524 23.37C9.43861 23.37 8.70837 24.709 8.70837 26.75C8.70837 28.037 9.03816 30.13 11.7 30.13ZM9.88618 26.165C9.94507 25.112 10.3455 24.54 11.2524 24.54C12.2064 24.54 12.5951 25.034 12.6187 26.165H9.88618ZM18.9665 30.13C19.791 30.13 20.2503 29.87 20.6036 29.35V30H22.4881V28.7H21.7814V23.5H17.5414V24.67H20.6036V26.36C20.2503 25.84 19.791 25.58 18.9665 25.58C17.5296 25.58 16.8582 26.724 16.8582 27.855C16.8582 28.986 17.5296 30.13 18.9665 30.13ZM19.3198 28.96C18.46 28.96 18.036 28.505 18.036 27.855C18.036 27.205 18.46 26.75 19.3198 26.75C20.1796 26.75 20.6036 27.205 20.6036 27.855C20.6036 28.505 20.1796 28.96 19.3198 28.96ZM28.9585 23.37C28.1341 23.37 27.5569 23.721 27.2036 24.28V23.5H26.0258V32.08H27.2036V29.22C27.5569 29.779 28.1341 30.13 28.9585 30.13C30.8666 30.13 31.5379 28.661 31.5379 26.75C31.5379 24.839 30.8666 23.37 28.9585 23.37ZM28.7818 28.96C27.6276 28.96 27.2036 28.31 27.2036 26.75C27.2036 25.19 27.6276 24.54 28.7818 24.54C29.9361 24.54 30.3601 25.19 30.3601 26.75C30.3601 28.31 29.9361 28.96 28.7818 28.96Z" fill="white"/>
<path d="M2.73058 52.83L4.56796 50.867C5.59265 49.775 6.12266 49.021 6.12266 47.76C6.12266 46.499 5.45131 45.03 3.54327 45.03C1.63522 45.03 0.963867 46.499 0.963867 48.15H2.14168C2.14168 46.85 2.56569 46.2 3.54327 46.2C4.52085 46.2 4.94486 46.785 4.94486 47.695C4.94486 48.644 4.47374 49.216 3.41371 50.308L0.963867 52.83V54H6.00489V52.83H2.73058ZM12.11 54.13C14.1358 54.13 14.8072 52.661 14.8072 51.27C14.8072 49.489 13.7118 48.67 12.2396 48.93L14.5716 46.33V45.16H9.76617V46.33H13.0169L10.9322 48.67L11.4033 49.84H12.2867C13.0287 49.84 13.6294 50.165 13.6294 51.27C13.6294 52.31 13.2054 52.96 12.11 52.96C11.0146 52.96 10.5906 52.31 10.5906 51.27H9.41282C9.41282 52.661 10.0842 54.13 12.11 54.13ZM21.5484 45.03C19.0986 45.03 18.3448 47.11 18.3448 49.58C18.3448 52.05 19.0986 54.13 21.5484 54.13C23.9982 54.13 24.752 52.05 24.752 49.58C24.752 47.11 23.9982 45.03 21.5484 45.03ZM23.5742 49.58C23.5742 50.308 23.5271 50.906 23.4211 51.387L20.3235 46.551C20.6297 46.317 21.0302 46.2 21.5484 46.2C23.1149 46.2 23.5742 47.227 23.5742 49.58ZM19.5226 49.58C19.5226 48.865 19.5697 48.267 19.6639 47.786L22.7616 52.609C22.4671 52.843 22.0666 52.96 21.5484 52.96C19.9701 52.96 19.5226 51.933 19.5226 49.58ZM31.3776 45.03C28.9277 45.03 28.1739 47.11 28.1739 49.58C28.1739 52.05 28.9277 54.13 31.3776 54.13C33.8274 54.13 34.5812 52.05 34.5812 49.58C34.5812 47.11 33.8274 45.03 31.3776 45.03ZM33.4034 49.58C33.4034 50.308 33.3563 50.906 33.2503 51.387L30.1527 46.551C30.4589 46.317 30.8593 46.2 31.3776 46.2C32.9441 46.2 33.4034 47.227 33.4034 49.58ZM29.3517 49.58C29.3517 48.865 29.3989 48.267 29.4931 47.786L32.5907 52.609C32.2963 52.843 31.8958 52.96 31.3776 52.96C29.7993 52.96 29.3517 51.933 29.3517 49.58ZM38.2332 49.502V50.672H42.3791V49.502H38.2332ZM47.7932 52.83L49.6306 50.867C50.6553 49.775 51.1853 49.021 51.1853 47.76C51.1853 46.499 50.514 45.03 48.6059 45.03C46.6979 45.03 46.0265 46.499 46.0265 48.15H47.2043C47.2043 46.85 47.6283 46.2 48.6059 46.2C49.5835 46.2 50.0075 46.785 50.0075 47.695C50.0075 48.644 49.5364 49.216 48.4764 50.308L46.0265 52.83V54H51.0675V52.83H47.7932ZM57.1726 54.13C59.1985 54.13 59.8696 52.661 59.8696 51.27C59.8696 49.489 58.7745 48.67 57.3022 48.93L59.6341 46.33V45.16H54.8288V46.33H58.0796L55.9948 48.67L56.466 49.84H57.3493C58.0913 49.84 58.692 50.165 58.692 51.27C58.692 52.31 58.268 52.96 57.1726 52.96C56.0773 52.96 55.6533 52.31 55.6533 51.27H54.4755C54.4755 52.661 55.1468 54.13 57.1726 54.13ZM66.3168 54.13C68.59 54.13 69.226 52.83 69.226 51.66C69.226 50.542 68.908 49.684 67.471 49.294V49.086C68.4957 48.696 68.7548 48.124 68.7548 47.24C68.7548 46.07 68.1188 45.03 66.3168 45.03C64.5147 45.03 63.8787 46.07 63.8787 47.24C63.8787 48.124 64.1378 48.696 65.1625 49.086V49.294C63.7256 49.684 63.4076 50.529 63.4076 51.66C63.4076 52.83 64.0436 54.13 66.3168 54.13ZM66.3168 48.605C65.3863 48.605 65.0565 48.098 65.0565 47.435C65.0565 46.642 65.3863 46.2 66.3168 46.2C67.2355 46.2 67.577 46.642 67.577 47.435C67.577 48.098 67.2355 48.605 66.3168 48.605ZM66.3168 52.96C64.9152 52.96 64.5854 52.258 64.5854 51.335C64.5854 50.412 64.9152 49.775 66.3168 49.775C67.7066 49.775 68.0482 50.412 68.0482 51.335C68.0482 52.258 67.7066 52.96 66.3168 52.96ZM75.6414 45.03C72.9795 45.03 72.6498 47.383 72.6498 48.67V50.36C72.6498 52.648 73.38 54.13 75.4647 54.13C77.5494 54.13 78.2797 52.661 78.2797 51.01C78.2797 49.359 77.5494 47.89 75.6414 47.89C74.8169 47.89 74.1809 48.371 73.8276 48.8C73.8276 47.643 73.8629 46.2 75.6414 46.2C76.1125 46.2 76.6896 46.2 77.4552 46.434V45.29C76.5365 45.03 76.089 45.03 75.6414 45.03ZM75.4647 49.047C76.619 49.047 77.1019 49.71 77.1019 51.01C77.1019 52.31 76.619 52.96 75.4647 52.96C74.3105 52.96 73.8276 51.92 73.8276 50.88C73.8276 49.71 74.3105 49.047 75.4647 49.047Z" fill="white" fill-opacity="0.33"/>
</g>
<defs>
<clipPath id="clip0_3813_1570">
<rect width="83" height="55" fill="white"/>
</clipPath>
</defs>
</svg>

<svg xmlns="http://www.w3.org/2000/svg" width="83" height="55" fill="none"><g fill="#fff" clip-path="url(#a)"><path d="M7.065 2.33V1.16H.964v1.17h2.461V10h1.178V2.33h2.462ZM10.474.9V10h1.178V4.67h2.59V10h1.178V3.5h-3.768V.9h-1.178Zm11.354 9.23c.448 0 .777 0 1.696-.26V8.726c-.765.234-1.225.234-1.696.234-1.378 0-1.708-.715-1.79-1.625h3.887V6.62c0-2.041-.73-3.25-2.544-3.25s-2.544 1.339-2.544 3.38c0 1.287.33 3.38 2.991 3.38Zm-1.814-3.965c.06-1.053.46-1.625 1.367-1.625.954 0 1.342.494 1.366 1.625h-2.733Zm17.194 3.965c1.873 0 3.016-.702 3.016-2.509 0-1.703-.86-2.184-3.122-2.756-1.378-.351-1.99-.637-1.99-1.43 0-.923.577-1.235 1.52-1.235.753 0 1.778.286 2.956.741v-1.17c-.79-.429-1.85-.741-2.804-.741-1.707 0-2.85.676-2.85 2.366 0 1.378.624 2.054 2.921 2.639 1.355.338 2.19.598 2.19 1.56 0 1.118-.788 1.365-1.837 1.365-1.06 0-2.285-.442-3.392-1.274v1.287c.813.689 2.262 1.157 3.392 1.157Zm9.311 0c.448 0 .778 0 1.696-.26V8.726c-.765.234-1.225.234-1.696.234-1.378 0-1.707-.715-1.79-1.625h3.887V6.62c0-2.041-.73-3.25-2.544-3.25s-2.544 1.339-2.544 3.38c0 1.287.33 3.38 2.991 3.38Zm-1.813-3.965c.058-1.053.459-1.625 1.366-1.625.954 0 1.342.494 1.366 1.625h-2.733Zm9.701 3.965c1.378 0 2.215-.845 2.215-1.95 0-1.196-.636-1.599-2.38-2.119-1-.299-1.154-.546-1.154-.91 0-.325.2-.611.801-.611.648 0 1.402.208 2.261.676v-1.17c-.577-.442-1.354-.676-2.143-.676-1.26 0-2.097.741-2.097 1.82 0 1.027.46 1.638 2.144 2.041 1.083.26 1.39.507 1.39.962 0 .403-.271.767-1.037.767-.871 0-1.425-.234-2.497-.975v1.313c.86.637 1.579.832 2.497.832Zm8.2 0c1.79 0 2.815-1.339 2.815-3.38s-1.024-3.38-2.815-3.38c-1.79 0-2.815 1.339-2.815 3.38s1.025 3.38 2.815 3.38Zm0-1.17c-1.213 0-1.637-.52-1.637-2.21s.424-2.21 1.637-2.21c1.214 0 1.638.52 1.638 2.21s-.425 2.21-1.638 2.21Zm9.89-4.29V10h1.177V3.5h-4.947V10h1.178V4.67h2.591Zm8.93-.39c-.353-.559-.93-.91-1.754-.91-1.908 0-2.58 1.469-2.58 3.38 0 1.911.672 3.38 2.58 3.38.824 0 1.401-.351 1.755-.91V10h1.178V.9h-1.178v3.38ZM79.85 8.96c-1.154 0-1.578-.65-1.578-2.21s.424-2.21 1.579-2.21c1.154 0 1.578.65 1.578 2.21s-.424 2.21-1.578 2.21ZM2.26 28.83v-7.67H1.082V30h4.452v-1.17H2.259Zm9.441 1.3c.448 0 .777 0 1.696-.26v-1.144c-.766.234-1.225.234-1.696.234-1.378 0-1.708-.715-1.79-1.625h3.886v-.715c0-2.041-.73-3.25-2.544-3.25-1.813 0-2.544 1.339-2.544 3.38 0 1.287.33 3.38 2.992 3.38Zm-1.814-3.965c.06-1.053.46-1.625 1.366-1.625.954 0 1.343.494 1.367 1.625H9.886Zm9.08 3.965c.825 0 1.284-.26 1.638-.78V30h1.884v-1.3h-.707v-5.2h-4.24v1.17h3.063v1.69c-.354-.52-.813-.78-1.637-.78-1.437 0-2.109 1.144-2.109 2.275s.672 2.275 2.108 2.275Zm.354-1.17c-.86 0-1.284-.455-1.284-1.105 0-.65.424-1.105 1.284-1.105.86 0 1.284.455 1.284 1.105 0 .65-.424 1.105-1.284 1.105Zm9.639-5.59c-.825 0-1.402.351-1.755.91v-.78h-1.178v8.58h1.178v-2.86c.353.559.93.91 1.755.91 1.908 0 2.579-1.469 2.579-3.38 0-1.911-.671-3.38-2.58-3.38Zm-.177 5.59c-1.154 0-1.578-.65-1.578-2.21s.424-2.21 1.578-2.21c1.154 0 1.578.65 1.578 2.21s-.424 2.21-1.578 2.21Z"/><path fill-opacity=".33" d="m2.73 52.83 1.838-1.963c1.025-1.092 1.555-1.846 1.555-3.107 0-1.261-.672-2.73-2.58-2.73s-2.58 1.469-2.58 3.12h1.179c0-1.3.424-1.95 1.401-1.95.978 0 1.402.585 1.402 1.495 0 .949-.471 1.521-1.531 2.613L.964 52.83V54h5.04v-1.17H2.732Zm9.38 1.3c2.026 0 2.697-1.469 2.697-2.86 0-1.781-1.095-2.6-2.567-2.34l2.332-2.6v-1.17H9.766v1.17h3.25l-2.084 2.34.471 1.17h.884c.742 0 1.342.325 1.342 1.43 0 1.04-.424 1.69-1.519 1.69s-1.52-.65-1.52-1.69H9.414c0 1.391.671 2.86 2.697 2.86Zm9.438-9.1c-2.45 0-3.203 2.08-3.203 4.55 0 2.47.754 4.55 3.203 4.55 2.45 0 3.204-2.08 3.204-4.55 0-2.47-.754-4.55-3.204-4.55Zm2.026 4.55c0 .728-.047 1.326-.153 1.807l-3.098-4.836c.307-.234.707-.351 1.225-.351 1.567 0 2.026 1.027 2.026 3.38Zm-4.051 0c0-.715.047-1.313.14-1.794l3.099 4.823c-.295.234-.695.351-1.214.351-1.578 0-2.025-1.027-2.025-3.38Zm11.855-4.55c-2.45 0-3.204 2.08-3.204 4.55 0 2.47.754 4.55 3.204 4.55s3.203-2.08 3.203-4.55c0-2.47-.754-4.55-3.203-4.55Zm2.025 4.55c0 .728-.047 1.326-.153 1.807l-3.097-4.836c.306-.234.706-.351 1.225-.351 1.566 0 2.025 1.027 2.025 3.38Zm-4.051 0c0-.715.047-1.313.141-1.794l3.098 4.823c-.295.234-.695.351-1.213.351-1.579 0-2.026-1.027-2.026-3.38Zm8.881-.078v1.17h4.146v-1.17h-4.146Zm9.56 3.328 1.838-1.963c1.024-1.092 1.554-1.846 1.554-3.107 0-1.261-.671-2.73-2.58-2.73-1.907 0-2.578 1.469-2.578 3.12h1.177c0-1.3.424-1.95 1.402-1.95.977 0 1.401.585 1.401 1.495 0 .949-.47 1.521-1.53 2.613l-2.45 2.522V54h5.04v-1.17h-3.274Zm9.38 1.3c2.026 0 2.697-1.469 2.697-2.86 0-1.781-1.095-2.6-2.568-2.34l2.332-2.6v-1.17H54.83v1.17h3.25l-2.084 2.34.471 1.17h.883c.742 0 1.343.325 1.343 1.43 0 1.04-.424 1.69-1.52 1.69-1.095 0-1.519-.65-1.519-1.69h-1.178c0 1.391.672 2.86 2.698 2.86Zm9.144 0c2.273 0 2.909-1.3 2.909-2.47 0-1.118-.318-1.976-1.755-2.366v-.208c1.025-.39 1.284-.962 1.284-1.846 0-1.17-.636-2.21-2.438-2.21s-2.438 1.04-2.438 2.21c0 .884.259 1.456 1.283 1.846v.208c-1.436.39-1.754 1.235-1.754 2.366 0 1.17.636 2.47 2.909 2.47Zm0-5.525c-.93 0-1.26-.507-1.26-1.17 0-.793.33-1.235 1.26-1.235.919 0 1.26.442 1.26 1.235 0 .663-.341 1.17-1.26 1.17Zm0 4.355c-1.402 0-1.732-.702-1.732-1.625s.33-1.56 1.732-1.56c1.39 0 1.731.637 1.731 1.56s-.341 1.625-1.731 1.625Zm9.324-7.93c-2.662 0-2.991 2.353-2.991 3.64v1.69c0 2.288.73 3.77 2.815 3.77 2.084 0 2.815-1.469 2.815-3.12s-.73-3.12-2.639-3.12c-.824 0-1.46.481-1.813.91 0-1.157.035-2.6 1.813-2.6.471 0 1.049 0 1.814.234V45.29c-.918-.26-1.366-.26-1.814-.26Zm-.176 4.017c1.154 0 1.637.663 1.637 1.963s-.483 1.95-1.637 1.95-1.637-1.04-1.637-2.08c0-1.17.483-1.833 1.637-1.833Z"/></g><defs><clipPath id="a"><path fill="#fff" d="M0 0h83v55H0z"/></clipPath></defs></svg>
